public/ecosystem/qwik-france.svg

<svg fill="none" height="162" viewBox="0 0 162 162" width="162" xmlns="http://www.w3.org/2000/svg" xmlns:xlink="http://www.w3.org/1999/xlink"><linearGradient id="a" gradientUnits="userSpaceOnUse" x1="35.5" x2="141.5" y1="17" y2="136.5"><stop offset="0" stop-color="#ac7ff4"/><stop offset="1" stop-color="#18b6f6"/></linearGradient><circle cx="81" cy="81" fill="url(#a)" r="81"/><path d="m37.4502 17.694c-13.3576 9.0903-23.7705 22.3105-29.36221 38.1061-2.92553 8.2636-4.40928 16.9348-4.40928 25.7812 0 8.816 1.47231 17.4606 4.38259 25.6977 5.5879 15.834 16.0123 29.084 29.3927 38.19 5.4887 3.733 11.4695 6.77 17.824 9.002v-145.7835c-6.3545 2.2326-12.3391 5.2728-17.8278 9.0065z" fill="#0856a4"/><path d="m106.809 8.72938v145.76462c-6.9076 2.419-14.2424 3.882-21.829 4.263-1.3083.065-2.6318.1-3.9363.1s-2.628-.035-3.9363-.1c-2.7806-.14-5.5803-.43-8.3151-.864-4.6496-.739-9.1695-1.89-13.5178-3.418v-145.78752c4.3483-1.52775 8.8682-2.67834 13.5178-3.41745 4.024-.64005 8.1434-.96388 12.2514-.96388 8.9444 0 17.6333 1.5468 25.7653 4.42323z" fill="#fff"/><path d="m153.995 55.7999c-5.729-16.1766-16.539-29.5644-30.251-38.6318-5.26-3.4746-10.943-6.3168-16.935-8.43885v145.76475c6.003-2.103 11.687-4.926 16.935-8.389 13.754-9.071 24.526-22.516 30.281-38.826 2.907-8.2373 4.383-16.8856 4.383-25.6978-.004-8.8465-1.488-17.5215-4.413-25.7813z" fill="#e84338"/><path d="m149.734 37.1253-6.666-6.6284-.102.0145v-.0727l-14.176-13.9982 3.493-3.3723-2.052-11.77425-9.738 12.06495c-1.659 1.6716-1.964 4.3899-.771 6.3958l6.084 10.0881c.932 1.5553 2.62 2.4856 4.439 2.4711l3.013-.0291z" fill="#18b6f6"/><path d="m153.373 13.1262-1.339-2.4711-.698-1.26465-.277-.49422-.029.02907-3.668-6.35226c-.917-1.598964-2.634-2.5874179-4.497-2.57288185l-3.217.08721285-9.592.029074c-1.819.014536-3.478.973915-4.395 2.529275l-5.837 11.57068 10.436-12.9516 13.682 15.0303-2.431 2.4566 1.456 11.7596.014-.029v.029h-.029l.029.0291 1.135 1.1048 5.517 5.3928c.233.2181.611-.0436.451-.3197l-3.406-6.7012 5.938-10.9747.19-.218c.072-.0873.145-.1745.203-.2617 1.165-1.5844 1.325-3.7067.364-5.4365z" fill="#ac7ef4"/><path d="m143.984 16.2369-13.725-14.9576 1.95 11.7161-3.493 3.3869 14.22 14.1145-1.281-11.7161z" fill="#fff"/></svg>

<svg width="162" height="162" viewBox="0 0 162 162" fill="none" xmlns="http://www.w3.org/2000/svg">
<circle cx="81" cy="81" r="81" fill="url(#paint0_linear_1830_2449)"/>
<path d="M37.4502 17.694C24.0926 26.7843 13.6797 40.0045 8.08799 55.8001C5.16246 64.0637 3.67871 72.7349 3.67871 81.5813C3.67871 90.3973 5.15102 99.0419 8.0613 107.279C13.6492 123.113 24.0736 136.363 37.454 145.469C42.9427 149.202 48.9235 152.239 55.278 154.471V8.6875C48.9235 10.9201 42.9389 13.9603 37.4502 17.694Z" fill="#0856A4"/>
<path d="M106.809 8.72938V154.494C99.9014 156.913 92.5666 158.376 84.98 158.757C83.6717 158.822 82.3482 158.857 81.0437 158.857C79.7392 158.857 78.4157 158.822 77.1074 158.757C74.3268 158.617 71.5271 158.327 68.7923 157.893C64.1427 157.154 59.6228 156.003 55.2745 154.475V8.68748C59.6228 7.15973 64.1427 6.00914 68.7923 5.27003C72.8163 4.62998 76.9357 4.30615 81.0437 4.30615C89.9881 4.30615 98.677 5.85295 106.809 8.72938Z" fill="white"/>
<path d="M153.995 55.7999C148.266 39.6233 137.456 26.2355 123.744 17.1681C118.484 13.6935 112.801 10.8513 106.809 8.72925V154.494C112.812 152.391 118.496 149.568 123.744 146.105C137.498 137.034 148.27 123.589 154.025 107.279C156.932 99.0417 158.408 90.3934 158.408 81.5812C158.404 72.7347 156.92 64.0597 153.995 55.7999Z" fill="#E84338"/>
<path d="M149.734 37.1253L143.068 30.4969L142.966 30.5114V30.4387L128.79 16.4405L132.283 13.0682L130.231 1.29395L120.493 13.3589C118.834 15.0305 118.529 17.7488 119.722 19.7547L125.806 29.8428C126.738 31.3981 128.426 32.3284 130.245 32.3139L133.258 32.2848L149.734 37.1253Z" fill="#18B6F6"/>
<path d="M153.373 13.1262L152.034 10.6551L151.336 9.39045L151.059 8.89623L151.03 8.9253L147.362 2.57304C146.445 0.974076 144.728 -0.0143779 142.865 0.00015815L139.648 0.087371L130.056 0.116445C128.237 0.130981 126.578 1.09036 125.661 2.64572L119.824 14.2164L130.26 1.2648L143.942 16.2951L141.511 18.7517L142.967 30.5113L142.981 30.4823V30.5113H142.952L142.981 30.5404L144.116 31.6452L149.633 37.038C149.866 37.2561 150.244 36.9944 150.084 36.7183L146.678 30.0171L152.616 19.0424L152.806 18.8244C152.878 18.7371 152.951 18.6499 153.009 18.5627C154.174 16.9783 154.334 14.856 153.373 13.1262Z" fill="#AC7EF4"/>
<path d="M143.984 16.2369L130.259 1.2793L132.209 12.9954L128.716 16.3823L142.936 30.4968L141.655 18.7807L143.984 16.2369Z" fill="white"/>
<defs>
<linearGradient id="paint0_linear_1830_2449" x1="35.5" y1="17" x2="141.5" y2="136.5" gradientUnits="userSpaceOnUse">
<stop stop-color="#AC7FF4"/>
<stop offset="1" stop-color="#18B6F6"/>
</linearGradient>
</defs>
</svg>
